X:1
T:Alizons March
C:Andy Hornby 2006
N:Written as theme tune for a short film about the Lancashire Witches.
N:A march to the gallows.
Q:1/4=60
I:abc2nwc
M:4/4
L:1/8
K:C
E|F2E3/2D/2 D3E|F2G3/2A/2 A4|F2E3/2D/2 D3E/2F/2|G2FE E4|
A2D3/2E/2 D3A|A2Bc d3A|d2A3/2G/2 F2 (3AGF|ED D3/2C/2 D3:|
|:c|d2A3/2G/2 F3A|G2AB c3B/2c/2|d2A3/2G/2 F3A|G2F3/2E/2 E3 (3A/2B/2c/2|
d2A3/2G/2 F3A|G2AB c3B/2c/2|d2A3/2G/2 F2 (3AGF|ED D3/2C/2 D3D:|
%%vskip 2cm
